X:11364
T:Mueder, ich well a Ding
A:Alsace
O:France
M:2/4
L:1/4
K:F
A A/2A/2|GG|F2|zC|AA|GG|F2|
F>G|AB|cc|c2|d2|fd|c2|
|BB|BB/2B/2|AA|AA|GG|AG|FA|c2|
|BB|BB/2B/2|AA|AA|GG|AG|F2||
W:Mueder, ich well a Ding
W:a Ding, a Ding, a Ding.
W:Guell du wett a Reckele 
W:Nei, Momme, Nei
W:O was ich fer a Mueder ha
W:Die jo gar nix rote ka
W:O was ich fer a Mueder ha
W:Die gar nix rote ka
W:
W:Guell du wett a Fletele 
W:Nei, Momme, Nei
W:
W:Guell du wett a M\"annele 
W:Ja, Momme, Ja
W:O was ich fer a Mueder ha
W:Die jo alles rote ka
W:O was ich fer a Mueder ha
W:Die alles rote ka
